assets/raycast/original.svg

<svg viewBox="0 0 24 24" xmlns="http://www.w3.org/2000/svg" fill="#FF6363"><path d="m6.004 15.492v2.504l-6.004-6.004 1.258-1.249zm2.504 2.504h-2.504l6.004 6.004 1.253-1.253zm14.24-4.747 1.252-1.252-11.997-11.997-1.253 1.251 4.741 4.749h-2.865l-3.309-3.308-1.252 1.252 2.06 2.06h-1.434v9.31h9.309v-1.432l2.06 2.06 1.252-1.252-3.312-3.32v-2.864zm-16.118-7.877-1.25 1.253 1.342 1.343 1.251-1.253zm10.655 10.655-1.247 1.251 1.342 1.343 1.253-1.251zm-13.341-7.968-1.252 1.251 3.312 3.314v-2.506zm9.936 9.937h-2.504l3.314 3.312 1.25-1.252z"/></svg>

<svg xmlns="http://www.w3.org/2000/svg" fill="#ff6363" viewBox="0 0 24 24"><path d="M6.004 15.492v2.504L0 11.992l1.258-1.249zm2.504 2.504H6.004L12.008 24l1.253-1.253zm14.24-4.747L24 11.997 12.003 0 10.75 1.251 15.491 6h-2.865L9.317 2.692 8.065 3.944l2.06 2.06H8.691v9.31H18v-1.432l2.06 2.06 1.252-1.252L18 11.37V8.506zM6.63 5.372 5.38 6.625l1.342 1.343 1.251-1.253zm10.655 10.655-1.247 1.251 1.342 1.343 1.253-1.251zM3.944 8.059 2.692 9.31l3.312 3.314v-2.506zm9.936 9.937h-2.504l3.314 3.312 1.25-1.252z"/></svg>
